assets/svgs/zoo-color/ZooColor22.svg

<svg xmlns="http://www.w3.org/2000/svg" data-name="Layer 1" viewBox="0 0 128 128"><path fill="#ffa453" fill-rule="evenodd" d="M49.473 74.479h29.055a24.323 24.323 0 0124.252 24.252v5.513H25.22v-5.513a24.323 24.323 0 0124.253-24.252z"/><path fill="#ffa453" fill-rule="evenodd" d="M54.132 90.877L64 84.072l-16.23-9.534 6.362 16.339zM64 84.072l9.868 6.805 6.362-16.339L64 84.072z"/><path fill="#fff" fill-rule="evenodd" d="M57.518 33.932h12.964a12.162 12.162 0 0112.126 12.127v19.405A18.662 18.662 0 0164 84.072a18.662 18.662 0 01-18.608-18.608V46.059a12.162 12.162 0 0112.126-12.127zM39.022 60.836a6.369 6.369 0 006.37 6.369V54.466a6.369 6.369 0 00-6.37 6.37zM82.608 54.466v12.739a6.369 6.369 0 100-12.739z"/><path fill="#ffa453" fill-rule="evenodd" d="M64 23.756c19.728 0 51.676 22.607 0 22.607s-19.728-22.607 0-22.607z"/><path fill="#ffa453" fill-rule="evenodd" d="M84.443 44.386a6.529 6.529 0 011.266 3.142c0 3.63-9.719 6.572-21.709 6.572s-21.709-2.942-21.709-6.572a6.529 6.529 0 011.267-3.142A94.054 94.054 0 0064 46.363a94.053 94.053 0 0020.443-1.977z"/><path fill="#fff" fill-rule="evenodd" d="M64 28.544l1.758 5.445 5.722-.011-4.636 3.354 1.779 5.439L64 39.398l-4.623 3.373 1.779-5.439-4.635-3.354 5.721.011L64 28.544z"/><rect width="11.154" height="3.829" x="76.94" y="97.702" fill="#fff" rx="1.914" ry="1.914"/><path fill="#fff" fill-rule="evenodd" d="M64 84.072l-5.338 3.682 2.304 4.206h6.069l2.304-4.206L64 84.072z"/><path fill="#fff" fill-rule="evenodd" d="M67.035 91.96h-6.069l-1.627 12.284h9.323L67.035 91.96z"/><path fill="#401d24" d="M83.619 68.38a7.615 7.615 0 00-1.011-15.163 1.25 1.25 0 000 2.5 5.11 5.11 0 011.234 10.071c0-.109.016-.215.016-.324v-5.438a1.25 1.25 0 10-2.5 0v5.437a17.358 17.358 0 11-34.716 0V52.822c4.427 1.671 10.914 2.529 17.358 2.529 11.409 0 22.959-2.687 22.959-7.822a5.739 5.739 0 00-.666-2.387c5.746-1.931 6.962-4.746 6.962-6.776 0-7.657-17.171-15.859-29.256-15.859s-29.256 8.2-29.256 15.859c0 2.03 1.216 4.846 6.962 6.776a5.741 5.741 0 00-.666 2.387c0 1.625 1.159 3 3.1 4.131v1.669a7.613 7.613 0 00-3.826 13.19 1.25 1.25 0 001.666-1.865 5.1 5.1 0 012.16-8.764v9.575a19.722 19.722 0 001.711 8.03 25.59 25.59 0 00-21.88 25.236v5.513a1.25 1.25 0 002.5 0v-5.513a23.064 23.064 0 0120.486-22.838l6.011 15.437a1.251 1.251 0 00.8.742 1.275 1.275 0 00.367.055 1.249 1.249 0 00.709-.221l3.389-2.337 1.44 2.631-1.572 11.88a1.25 1.25 0 001.075 1.4 1.365 1.365 0 00.166.011 1.25 1.25 0 001.238-1.086l1.483-11.2h3.878l1.483 11.2a1.25 1.25 0 001.238 1.086 1.367 1.367 0 00.165-.011 1.25 1.25 0 001.075-1.4L68.328 92.2l1.442-2.632 3.389 2.337a1.249 1.249 0 00.71.221 1.275 1.275 0 00.367-.055 1.251 1.251 0 00.8-.742l6.324-16.246a19.7 19.7 0 002.259-6.703zM37.244 38.365c0-5.154 14.609-13.359 26.756-13.359s26.756 8.205 26.756 13.359c0 2.211-2.919 3.639-5.369 4.446-.365.12-.751.234-1.148.345-.019 0-.037.011-.055.015-4.635 1.288-11.41 1.942-20.184 1.942s-15.547-.654-20.182-1.941c-.02 0-.038-.012-.057-.015-.4-.111-.783-.225-1.147-.345-2.45-.812-5.37-2.236-5.37-4.447zm6.3 9.163a4.191 4.191 0 01.605-1.688c4.805 1.176 11.462 1.773 19.851 1.773s15.046-.6 19.854-1.773a4.191 4.191 0 01.605 1.688c0 2.17-7.97 5.322-20.459 5.322-8.451 0-14.822-1.444-18.065-3.05-.034-.017-.066-.034-.1-.047-1.49-.753-2.294-1.538-2.294-2.225zm11.179 41.423l-3.112-7.993a19.764 19.764 0 008.857 4.031zm11.571 1.759h-4.588L60.3 88.143l3.7-2.552 3.7 2.552zm6.983-1.759l-5.745-3.962a19.764 19.764 0 008.858-4.031zM90.864 76.432a1.25 1.25 0 10-1.216 2.184 23.069 23.069 0 0111.882 20.115v5.513a1.25 1.25 0 002.5 0v-5.513a25.567 25.567 0 00-13.166-22.299z"/><path fill="#401d24" d="M86.085 74.378a1.25 1.25 0 00-.752 2.385l.368.118a1.25 1.25 0 00.774-2.377zM59.685 37.811l-1.5 4.571a1.25 1.25 0 001.925 1.4L64 40.945l3.886 2.835a1.25 1.25 0 001.925-1.4l-1.5-4.571 3.9-2.82a1.25 1.25 0 00-.733-2.263l-4.81.009-1.479-4.575a1.25 1.25 0 00-2.379 0l-1.477 4.576-4.81-.009a1.25 1.25 0 00-.733 2.263zm2.555-2.572a1.249 1.249 0 001.189-.866L64 32.612l.568 1.76a1.249 1.249 0 001.189.866h1.85l-1.5 1.085a1.25 1.25 0 00-.455 1.4l.575 1.758-1.494-1.09a1.25 1.25 0 00-1.474 0l-1.494 1.09.575-1.758a1.25 1.25 0 00-.455-1.4l-1.5-1.085zM86.18 96.452h-7.325a3.164 3.164 0 000 6.328h7.325a3.164 3.164 0 000-6.328zm0 3.828h-7.325a.664.664 0 110-1.328h7.325a.664.664 0 010 1.328z"/></svg>

<svg id="Layer_1" data-name="Layer 1" xmlns="http://www.w3.org/2000/svg" viewBox="0 0 128 128"><title>ZOO KEEPER</title><path d="M49.473,74.479H78.528A24.323,24.323,0,0,1,102.78,98.731v5.513H25.22V98.731A24.323,24.323,0,0,1,49.473,74.479Z" style="fill:#ffa453;fill-rule:evenodd"/><polygon points="54.132 90.877 64 84.072 47.77 74.538 54.132 90.877" style="fill:#ffa453;fill-rule:evenodd"/><polygon points="64 84.072 73.868 90.877 80.23 74.538 64 84.072" style="fill:#ffa453;fill-rule:evenodd"/><path d="M57.518,33.932H70.482A12.162,12.162,0,0,1,82.608,46.059V65.464A18.662,18.662,0,0,1,64,84.072h0A18.662,18.662,0,0,1,45.392,65.464V46.059A12.162,12.162,0,0,1,57.518,33.932Z" style="fill:#fff;fill-rule:evenodd"/><path d="M39.022,60.836a6.369,6.369,0,0,0,6.37,6.369V54.466A6.369,6.369,0,0,0,39.022,60.836Z" style="fill:#fff;fill-rule:evenodd"/><path d="M82.608,54.466V67.205a6.369,6.369,0,1,0,0-12.739Z" style="fill:#fff;fill-rule:evenodd"/><path d="M64,23.756c19.728,0,51.676,22.607,0,22.607S44.272,23.756,64,23.756Z" style="fill:#ffa453;fill-rule:evenodd"/><path d="M84.443,44.386a6.529,6.529,0,0,1,1.266,3.142C85.709,51.158,75.99,54.1,64,54.1s-21.709-2.942-21.709-6.572a6.529,6.529,0,0,1,1.267-3.142A94.054,94.054,0,0,0,64,46.363,94.053,94.053,0,0,0,84.443,44.386Z" style="fill:#ffa453;fill-rule:evenodd"/><polygon points="64 28.544 65.758 33.989 71.48 33.978 66.844 37.332 68.623 42.771 64 39.398 59.377 42.771 61.156 37.332 56.521 33.978 62.242 33.989 64 28.544" style="fill:#fff;fill-rule:evenodd"/><rect x="76.94" y="97.702" width="11.154" height="3.829" rx="1.914" ry="1.914" style="fill:#fff"/><polygon points="64 84.072 58.662 87.754 60.966 91.96 64 91.96 67.035 91.96 69.339 87.754 64 84.072" style="fill:#fff;fill-rule:evenodd"/><polygon points="67.035 91.96 60.966 91.96 59.339 104.244 68.662 104.244 67.035 91.96" style="fill:#fff;fill-rule:evenodd"/><path d="M83.619,68.38a7.615,7.615,0,0,0-1.011-15.163,1.25,1.25,0,0,0,0,2.5,5.11,5.11,0,0,1,1.234,10.071c0-.109.016-.215.016-.324V60.026a1.25,1.25,0,1,0-2.5,0v5.437a17.358,17.358,0,1,1-34.716,0V52.822C51.069,54.493,57.556,55.351,64,55.351c11.409,0,22.959-2.687,22.959-7.822a5.739,5.739,0,0,0-.666-2.387c5.746-1.931,6.962-4.746,6.962-6.776,0-7.657-17.171-15.859-29.256-15.859s-29.256,8.2-29.256,15.859c0,2.03,1.216,4.846,6.962,6.776a5.741,5.741,0,0,0-.666,2.387c0,1.625,1.159,3,3.1,4.131v1.669a7.613,7.613,0,0,0-3.826,13.19,1.25,1.25,0,0,0,1.666-1.865,5.1,5.1,0,0,1,2.16-8.764v9.575a19.722,19.722,0,0,0,1.711,8.03A25.59,25.59,0,0,0,23.97,98.731v5.513a1.25,1.25,0,0,0,2.5,0V98.731A23.064,23.064,0,0,1,46.956,75.893L52.967,91.33a1.251,1.251,0,0,0,.8.742,1.275,1.275,0,0,0,.367.055,1.249,1.249,0,0,0,.709-.221l3.389-2.337L59.672,92.2,58.1,104.08a1.25,1.25,0,0,0,1.075,1.4,1.365,1.365,0,0,0,.166.011,1.25,1.25,0,0,0,1.238-1.086l1.483-11.2H65.94l1.483,11.2a1.25,1.25,0,0,0,1.238,1.086,1.367,1.367,0,0,0,.165-.011,1.25,1.25,0,0,0,1.075-1.4L68.328,92.2l1.442-2.632,3.389,2.337a1.249,1.249,0,0,0,.71.221,1.275,1.275,0,0,0,.367-.055,1.251,1.251,0,0,0,.8-.742L81.36,75.083A19.7,19.7,0,0,0,83.619,68.38ZM37.244,38.365c0-5.154,14.609-13.359,26.756-13.359s26.756,8.205,26.756,13.359c0,2.211-2.919,3.639-5.369,4.446-.365.12-.751.234-1.148.345-.019,0-.037.011-.055.015C79.549,44.459,72.774,45.113,64,45.113s-15.547-.654-20.182-1.941c-.02,0-.038-.012-.057-.015-.4-.111-.783-.225-1.147-.345C40.164,42,37.244,40.576,37.244,38.365Zm6.3,9.163a4.191,4.191,0,0,1,.605-1.688C48.954,47.016,55.611,47.613,64,47.613s15.046-.6,19.854-1.773a4.191,4.191,0,0,1,.605,1.688c0,2.17-7.97,5.322-20.459,5.322-8.451,0-14.822-1.444-18.065-3.05-.034-.017-.066-.034-.1-.047C44.345,49,43.541,48.215,43.541,47.528ZM54.723,88.951l-3.112-7.993a19.764,19.764,0,0,0,8.857,4.031ZM66.294,90.71H61.706L60.3,88.143,64,85.591l3.7,2.552Zm6.983-1.759-5.745-3.962a19.764,19.764,0,0,0,8.858-4.031Z" style="fill:#401d24"/><path d="M90.864,76.432a1.25,1.25,0,1,0-1.216,2.184A23.069,23.069,0,0,1,101.53,98.731v5.513a1.25,1.25,0,0,0,2.5,0V98.731A25.567,25.567,0,0,0,90.864,76.432Z" style="fill:#401d24"/><path d="M86.085,74.378a1.25,1.25,0,0,0-.752,2.385l.368.118a1.25,1.25,0,0,0,.774-2.377Z" style="fill:#401d24"/><path d="M59.685,37.811l-1.5,4.571a1.25,1.25,0,0,0,1.925,1.4L64,40.945l3.886,2.835a1.25,1.25,0,0,0,1.925-1.4l-1.5-4.571,3.9-2.82a1.25,1.25,0,0,0-.733-2.263h0l-4.81.009L65.189,28.16a1.25,1.25,0,0,0-2.379,0l-1.477,4.576-4.81-.009h0a1.25,1.25,0,0,0-.733,2.263Zm2.555-2.572h0a1.249,1.249,0,0,0,1.189-.866L64,32.612l.568,1.76a1.249,1.249,0,0,0,1.189.866h0l1.85,0-1.5,1.085a1.25,1.25,0,0,0-.455,1.4l.575,1.758-1.494-1.09a1.25,1.25,0,0,0-1.474,0l-1.494,1.09.575-1.758a1.25,1.25,0,0,0-.455-1.4l-1.5-1.085Z" style="fill:#401d24"/><path d="M86.18,96.452H78.855a3.164,3.164,0,0,0,0,6.328H86.18a3.164,3.164,0,0,0,0-6.328Zm0,3.828H78.855a.664.664,0,1,1,0-1.328H86.18a.664.664,0,0,1,0,1.328Z" style="fill:#401d24"/></svg>
